svg/icon/xpa.svg

<svg height="32" viewBox="0 0 32 32" width="32" xmlns="http://www.w3.org/2000/svg" xmlns:xlink="http://www.w3.org/1999/xlink"><defs><linearGradient id="a" x1="50%" x2="50%" y1="0%" y2="100%"><stop offset="0" stop-color="#fff" stop-opacity=".5"/><stop offset="1" stop-opacity=".5"/></linearGradient><circle id="b" cx="16" cy="15" r="15"/><filter id="c" height="111.7%" width="111.7%" x="-5.8%" y="-4.2%"><feOffset dy=".5" in="SourceAlpha" result="shadowOffsetOuter1"/><feGaussianBlur in="shadowOffsetOuter1" result="shadowBlurOuter1" stdDeviation=".5"/><feComposite in="shadowBlurOuter1" in2="SourceAlpha" operator="out" result="shadowBlurOuter1"/><feColorMatrix in="shadowBlurOuter1" values="0 0 0 0 0   0 0 0 0 0   0 0 0 0 0  0 0 0 0.199473505 0"/></filter><path id="d" d="m25.574504 11.8463471-8.1091273-2.32478662-2.7743608 4.72569132-3.2215207-3.7376028 1.4593314-.1876905 1.5053258 1.7676482 1.6700535-2.95847723-7.35088044-2.10743024c-.43540418-.12488583-.84421095.26366393-.73561706.69953428l3.2563472 13.07712349 3.4973404-5.8885911 3.2218146 3.737458-1.4594784.1876905-1.5051789-1.7676481-3.309542 5.5162489.4906563 1.9706781c.1084469.4355809.6528859.5918691.9796961.2807399l12.6295133-12.010312c.3268103-.3106951.1910312-.855533-.244226-.9802741z"/><filter id="e" height="119.4%" width="119.4%" x="-9.7%" y="-6.9%"><feOffset dy=".5" in="SourceAlpha" result="shadowOffsetOuter1"/><feGaussianBlur in="shadowOffsetOuter1" result="shadowBlurOuter1" stdDeviation=".5"/><feColorMatrix in="shadowBlurOuter1" values="0 0 0 0 0   0 0 0 0 0   0 0 0 0 0  0 0 0 0.204257246 0"/></filter></defs><g fill="none" fill-rule="evenodd"><use fill="#000" filter="url(#c)" xlink:href="#b"/><use fill="#4fa784" xlink:href="#b"/><use fill="url(#a)" xlink:href="#b"/><circle cx="16" cy="15" r="14.5" stroke="#000" stroke-opacity=".097"/><use fill="#000" filter="url(#e)" xlink:href="#d"/><use fill="#fff" xlink:href="#d"/></g></svg>

<svg xmlns="http://www.w3.org/2000/svg" xmlns:xlink="http://www.w3.org/1999/xlink" width="32" height="32" viewBox="0 0 32 32">
  <defs>
    <linearGradient id="xpa-c" x1="50%" x2="50%" y1="0%" y2="100%">
      <stop offset="0%" stop-color="#FFF" stop-opacity=".5"/>
      <stop offset="100%" stop-opacity=".5"/>
    </linearGradient>
    <circle id="xpa-b" cx="16" cy="15" r="15"/>
    <filter id="xpa-a" width="111.7%" height="111.7%" x="-5.8%" y="-4.2%" filterUnits="objectBoundingBox">
      <feOffset dy=".5" in="SourceAlpha" result="shadowOffsetOuter1"/>
      <feGaussianBlur in="shadowOffsetOuter1" result="shadowBlurOuter1" stdDeviation=".5"/>
      <feComposite in="shadowBlurOuter1" in2="SourceAlpha" operator="out" result="shadowBlurOuter1"/>
      <feColorMatrix in="shadowBlurOuter1" values="0 0 0 0 0   0 0 0 0 0   0 0 0 0 0  0 0 0 0.199473505 0"/>
    </filter>
    <path id="xpa-e" d="M25.574504,11.8463471 L17.4653767,9.52156048 L14.6910159,14.2472518 L11.4694952,10.509649 L12.9288266,10.3219585 L14.4341524,12.0896067 L16.1042059,9.13112947 L8.75332546,7.02369923 C8.31792128,6.8988134 7.90911451,7.28736316 8.0177084,7.72323351 L11.2740556,20.800357 L14.771396,14.9117659 L17.9932106,18.6492239 L16.5337322,18.8369144 L15.0285533,17.0692663 L11.7190113,22.5855152 L12.2096676,24.5561933 C12.3181145,24.9917742 12.8625535,25.1480624 13.1893637,24.8369332 L25.818877,12.8266212 C26.1456873,12.5159261 26.0099082,11.9710882 25.574651,11.8463471 L25.574504,11.8463471 Z"/>
    <filter id="xpa-d" width="119.4%" height="119.4%" x="-9.7%" y="-6.9%" filterUnits="objectBoundingBox">
      <feOffset dy=".5" in="SourceAlpha" result="shadowOffsetOuter1"/>
      <feGaussianBlur in="shadowOffsetOuter1" result="shadowBlurOuter1" stdDeviation=".5"/>
      <feColorMatrix in="shadowBlurOuter1" values="0 0 0 0 0   0 0 0 0 0   0 0 0 0 0  0 0 0 0.204257246 0"/>
    </filter>
  </defs>
  <g fill="none" fill-rule="evenodd">
    <use fill="#000" filter="url(#xpa-a)" xlink:href="#xpa-b"/>
    <use fill="#4FA784" xlink:href="#xpa-b"/>
    <use fill="url(#xpa-c)" style="mix-blend-mode:soft-light" xlink:href="#xpa-b"/>
    <circle cx="16" cy="15" r="14.5" stroke="#000" stroke-opacity=".097"/>
    <g>
      <use fill="#000" filter="url(#xpa-d)" xlink:href="#xpa-e"/>
      <use fill="#FFF" xlink:href="#xpa-e"/>
    </g>
  </g>
</svg>
